X:2
T:Agnes. G&D_1826.02
A:London, England
M:2/4
L:1/16
Q:1/4=90
C:Weber
B:Goulding & D’Almaine, 24 CDs1826
N:Part of 'Leise leise fromme weise' from Der Freischuet
Z:Village Music Project.Andrea Kirkby.2000
W:Lead down the middle, up again, right and left at top
K:F
c4(=Bcdc)|f4(efge)|a4(gfed)|(d4c2) F2|
G2A2B2=B2|c2f4(ed)|d2c4E2|F4z2:|
|:fg|a2gf (ef)cA|(dc).B.G (dc).B.G|a2gf (ef).c.A|(dc).B.G (dc).B.G|
agfe dcBA|GABc defg|a2gf efge|f3F F4:|

